storj.svg

<svg width="1688" height="666" viewBox="0 0 1688 666" fill="none" xmlns="http://www.w3.org/2000/svg">
<path d="M234.466 426.949C234.639 426.949 234.812 426.948 234.984 426.947C235.026 426.948 235.07 426.948 235.115 426.949H279.218C279.227 430.096 279.231 431.958 279.23 432.533C279.131 477.428 279.14 522.312 279.221 567.204C279.224 570.372 278.226 572.176 275.335 573.558C260.193 580.85 248.766 599.665 251.884 619.788C255.5 643.166 279.541 660.82 302.742 656.287C323.18 652.3 336.607 638.359 339.482 616.913C341.428 602.368 334.425 583.167 315.702 573.552C313.161 572.256 311.759 570.838 311.768 567.72C311.861 524.115 311.87 480.51 311.768 436.913C311.768 435.98 311.768 432.658 311.768 426.949H366.322C368.009 426.949 369.685 426.814 371.335 426.549C383.764 425.28 395.289 421.045 405.154 414.58L482.605 459.401C485.157 461.124 487.121 462.376 488.499 463.158C492.349 465.335 493.835 467.741 493.721 472.244C493.034 498.337 515.807 519.651 542.358 516.823C568.425 514.055 586.894 488.99 580.847 463.645C573.599 433.27 540.666 419.564 514.064 435.982C511.26 437.708 509.234 438.18 506.242 436.43C483.732 423.291 461.168 410.242 438.511 397.357C437.724 396.91 434.259 394.712 428.117 390.763C434.657 379.885 438.407 367.206 438.407 353.663C438.407 326.784 423.687 303.454 401.845 290.702L402.127 290.54C402.505 290.255 402.94 289.974 403.432 289.692C413.013 284.211 422.589 278.722 432.162 273.225L495.78 236.549C499.297 234.514 502.813 232.477 506.329 230.44C509.087 228.848 510.959 228.821 513.667 230.637C523.318 237.108 534.138 239.156 545.491 237.17C567.588 233.3 583.603 213.324 581.634 189.743C579.49 164.161 554.374 145.039 529.287 150.587C507.273 155.457 493.443 172.645 493.697 195.24C493.733 199.089 492.663 201.284 489.226 203.249C480.356 208.319 471.492 213.397 462.634 218.484L462.64 218.495L381.55 265.416C367.261 240.41 341.76 222.417 311.835 217.716C311.844 179.702 311.917 141.687 311.712 103.676C311.682 97.9725 313.015 94.6669 318.365 91.5973C337.546 80.5877 344.836 56.8874 336.06 36.6778C327.21 16.292 304.601 5.40185 283.397 11.8547C264.097 17.7283 253.339 31.3477 251.447 51.1691C249.992 66.4637 257.234 83.4543 274.708 92.9947C277.392 94.4579 279.263 95.7449 279.251 99.4237C279.215 110.613 279.189 121.802 279.172 132.99L279.817 217.848C253.288 222.244 229.904 237.147 215.08 258.747C211.284 259.581 207.58 260.655 203.985 261.952C170.58 242.882 137.323 223.545 103.859 204.566C98.8406 201.723 96.4195 198.674 97.2565 192.899C97.5912 190.597 96.8798 188.13 96.5032 185.759C93.0748 164.173 71.9426 146.117 46.4344 150.303C21.4105 154.418 5.52091 177.04 9.65172 201.254C14.9183 232.178 50.2424 247.831 76.8924 230.915C79.8993 229.006 81.9796 228.857 85.0613 230.652C91.3897 234.339 101.014 239.643 113.935 246.564L173.284 280.838C156.997 296.261 146.843 317.816 146.843 341.8C146.843 360.338 152.907 377.419 163.177 391.34L94.0362 431.2C89.5328 433.553 86.1615 435.366 83.9225 436.639C82.422 437.49 79.5077 437.314 77.9834 436.394C70.8127 432.07 63.1758 429.197 54.8186 428.974C27.0148 428.263 10.106 450.951 9.15554 470.662C8.05559 493.75 25.5413 517.4 53.8202 517.188C78.62 517.002 97.4926 497.136 97.2475 472.349C97.2086 467.921 98.5118 465.415 102.401 463.209C121.504 452.342 150.02 435.928 187.949 413.968C201.459 422.202 217.423 426.949 234.466 426.949ZM564.754 240.138C561.525 242.066 560.405 244.03 560.414 247.706C560.525 304.627 560.516 361.55 560.429 418.459C560.423 421.878 561.295 423.941 564.434 425.746C584.671 437.432 594.912 458.987 591.277 481.646C587.792 503.359 570.422 521.195 547.922 525.466C534.877 527.952 522.241 525.973 510.808 518.963C507.323 516.832 504.868 517.208 501.601 519.089C452.631 547.432 403.608 575.702 354.527 603.863C351.171 605.794 349.913 607.913 349.922 611.828C349.973 639.214 328.82 663.046 302.395 665.702C274.25 668.54 249.366 650.867 243.286 623.577C242.354 619.381 242.04 614.994 241.945 610.7C241.873 607.791 241.067 606.009 238.478 604.511C188.719 575.91 139.003 547.241 89.3074 518.53C86.6166 516.964 84.5021 516.952 81.7874 518.593C49.315 538.125 7.92799 519.402 1.0411 482.914C-3.30427 459.864 6.08531 438.312 26.7311 426.173C29.9923 424.248 31.4677 422.311 31.4617 418.327C31.3124 361.401 31.3363 304.486 31.4258 247.569C31.4288 244.149 30.5389 242.126 27.406 240.308C6.67963 228.279 -3.07133 207.378 0.909691 183.91C4.86383 160.598 22.9053 143.495 46.3853 140.153C58.9704 138.365 71.1076 140.657 81.9964 147.604C84.526 149.222 86.4045 149.171 88.9789 147.688C138.528 119.037 188.116 90.4662 237.743 61.9612C240.744 60.2363 241.915 58.2578 241.924 54.7245C242.005 23.3756 266.796 -0.623295 298.208 0.0123381C322.691 0.501745 345.601 20.6958 349.074 44.8379C349.391 47.0581 349.889 48.4249 349.889 51.4807C349.889 58.1742 352.356 61.0122 357.571 63.9904C405.725 91.5226 453.745 119.27 501.732 147.064C505.03 148.98 507.425 149.058 510.859 147.112C543.454 128.535 582.975 146.339 590.91 183.098C591.656 186.518 591.585 190.117 591.844 193.242C591.31 214.107 582.246 229.658 564.754 240.138ZM526 472.435C526 465.223 531.181 459.985 538.277 460C545.109 460.036 550.931 465.674 550.999 472.349C551.074 478.774 544.853 484.988 538.378 485C531.445 485 526.003 479.48 526 472.435ZM283 54.3955C283.027 47.4024 288.475 42.006 295.515 42C302.567 41.9941 307.973 47.3786 308 54.3985C308.018 61.1299 302.145 67.0824 295.539 66.9991C288.822 66.9337 282.979 61.0526 283 54.3955ZM66 472.485C65.9732 479.525 60.48 485.056 53.5787 485C47.0577 484.937 41.0298 478.86 41 472.298C40.9675 465.742 46.9329 460 53.7778 460C60.8692 460.006 66.0266 465.27 66 472.485ZM295.653 600C302.688 600.049 308.033 605.513 308 612.624C307.955 619.709 302.531 625.045 295.401 625C288.33 624.963 282.924 619.46 283.001 612.37C283.081 605.319 288.592 599.946 295.653 600ZM53.9178 205.999C46.789 206.063 41.2166 200.756 41.0057 193.719C40.7948 186.861 46.4326 181.105 53.4604 181.002C60.7971 180.89 65.8943 185.884 65.9982 193.273C66.1081 200.698 61.1328 205.933 53.9178 205.999ZM538.133 206C530.924 205.948 525.929 200.706 526.001 193.284C526.072 185.915 531.186 180.904 538.525 181.001C545.562 181.101 551.163 186.804 550.996 193.696C550.83 200.679 545.217 206.051 538.133 206ZM235.011 396C203.525 396 178 371.43 178 341.122C178 310.936 203.319 286.443 234.629 286.245C244.651 262.628 268.615 246 296.584 246C333.253 246 363.038 274.581 363.543 310.025C363.581 310.024 363.619 310.024 363.658 310.024C388.147 310.024 408 329.271 408 353.012C408 375.665 389.927 394.225 366.997 395.88C366.842 395.957 366.667 396 366.482 396H235.659C235.632 396 235.606 396 235.579 395.997C235.39 396 235.201 396 235.011 396ZM1639.24 274.097H1569.39V226.548H1639.24H1687.19V365.717C1687.19 417.374 1656.84 442.29 1611.92 442.29C1578.84 442.29 1556.99 427.705 1542.42 410.385L1571.86 377.568C1584 390.938 1595.84 398.838 1610.71 398.838C1628.31 398.838 1639.24 388.203 1639.24 363.59V274.097ZM851.194 376.413C851.194 418.611 819.012 442.29 773.169 442.29C740.987 442.29 708.502 431.058 683 408.289L710.627 375.198C729.754 390.985 749.792 401.003 774.08 401.003C793.206 401.003 804.743 393.413 804.743 380.966V380.359C804.743 368.519 797.457 362.448 761.936 353.34C719.128 342.411 691.501 330.571 691.501 288.373V287.766C691.501 249.211 722.468 223.71 765.882 223.71C796.849 223.71 823.263 233.424 844.818 250.729L820.53 285.944C801.707 272.89 783.188 264.997 765.275 264.997C747.363 264.997 737.951 273.194 737.951 283.516V284.123C737.951 298.088 747.059 302.642 783.795 312.053C826.906 323.285 851.194 338.768 851.194 375.805V376.413ZM1049.9 269.737H985.269V439.452H938.538V269.737H873.903V226.548H1049.9V269.737ZM1295.45 333C1295.45 393.47 1247.68 443 1181.95 443C1116.23 443 1069.06 394.077 1069.06 333.608V333C1069.06 272.53 1116.84 223 1182.56 223C1248.29 223 1295.45 271.923 1295.45 332.392V333ZM1246.48 333.606V333C1246.48 296.613 1219.7 266.29 1181.95 266.29C1144.21 266.29 1118.03 296.006 1118.03 332.394V333C1118.03 369.387 1144.82 399.71 1182.56 399.71C1220.31 399.71 1246.48 369.994 1246.48 333.606ZM1519 439.452H1464.31L1418.74 371.323H1381.98V439.452H1335.19V226.548H1432.41C1482.54 226.548 1512.62 253.009 1512.62 296.806V297.415C1512.62 331.783 1494.09 353.378 1467.05 363.415L1519 439.452ZM1465.06 300.101V299.493C1465.06 279.453 1451.12 269.129 1428.4 269.129H1382.03V330.161H1429.31C1452.03 330.161 1465.06 318.016 1465.06 300.101Z" fill="white"/>
</svg>

<svg xmlns="http://www.w3.org/2000/svg" width="1688" height="666" fill="none"><path d="M234.466 426.949l.518-.002.131.002h44.103l.012 5.584-.009 134.671c.003 3.168-.995 4.972-3.886 6.354-15.142 7.292-26.569 26.107-23.451 46.23 3.616 23.378 27.657 41.032 50.858 36.499 20.438-3.987 33.865-17.928 36.74-39.374 1.946-14.545-5.057-33.746-23.78-43.361-2.541-1.296-3.943-2.714-3.934-5.832V436.913v-9.964h54.554a31.61 31.61 0 0 0 5.013-.4c12.429-1.269 23.954-5.504 33.819-11.969l77.451 44.821c2.552 1.723 4.516 2.975 5.894 3.757 3.85 2.177 5.336 4.583 5.222 9.086-.687 26.093 22.086 47.407 48.637 44.579 26.067-2.768 44.536-27.833 38.489-53.178-7.248-30.375-40.181-44.081-66.783-27.663-2.804 1.726-4.83 2.198-7.822.448l-67.731-39.073c-.787-.447-4.252-2.645-10.394-6.594 6.54-10.878 10.29-23.557 10.29-37.1 0-26.879-14.72-50.209-36.562-62.961l.282-.162a12.48 12.48 0 0 1 1.305-.848l28.73-16.467 63.618-36.676 10.549-6.109c2.758-1.592 4.63-1.619 7.338.197 9.651 6.471 20.471 8.519 31.824 6.533 22.097-3.87 38.112-23.846 36.143-47.427-2.144-25.582-27.26-44.704-52.347-39.156-22.014 4.87-35.844 22.058-35.59 44.653.036 3.849-1.034 6.044-4.471 8.009l-26.592 15.235.006.011-81.09 46.921c-14.289-25.006-39.79-42.999-69.715-47.7l-.123-114.04c-.03-5.704 1.303-9.009 6.653-12.079 19.181-11.01 26.471-34.71 17.695-54.92-8.85-20.386-31.459-31.276-52.663-24.823-19.3 5.874-30.058 19.493-31.95 39.314-1.455 15.295 5.787 32.285 23.261 41.826 2.684 1.463 4.555 2.75 4.543 6.429l-.079 33.566.645 84.858c-26.529 4.396-49.913 19.299-64.737 40.899a88.9 88.9 0 0 0-11.095 3.205l-100.126-57.386c-5.018-2.843-7.439-5.892-6.602-11.667.335-2.302-.377-4.769-.753-7.14-3.428-21.586-24.561-39.642-50.069-35.456-25.024 4.115-40.913 26.737-36.783 50.951 5.267 30.924 40.591 46.577 67.241 29.661 3.007-1.909 5.087-2.058 8.169-.263 6.328 3.687 15.953 8.991 28.874 15.912l59.349 34.274c-16.287 15.423-26.441 36.978-26.441 60.962 0 18.538 6.064 35.619 16.334 49.54L94.036 431.2l-10.114 5.439c-1.501.851-4.415.675-5.939-.245-7.171-4.324-14.808-7.197-23.165-7.42-27.804-.711-44.713 21.977-45.663 41.688-1.1 23.088 16.386 46.738 44.665 46.526 24.8-.186 43.672-20.052 43.427-44.839-.039-4.428 1.264-6.934 5.153-9.14l85.548-49.241c13.51 8.234 29.474 12.981 46.517 12.981zm330.288-186.811c-3.229 1.928-4.349 3.892-4.34 7.568l.015 170.753c-.006 3.419.866 5.482 4.005 7.287 20.237 11.686 30.478 33.241 26.843 55.9-3.485 21.713-20.855 39.549-43.355 43.82-13.045 2.486-25.681.507-37.114-6.503-3.485-2.131-5.94-1.755-9.207.126l-147.074 84.774c-3.356 1.931-4.614 4.05-4.605 7.965.051 27.386-21.102 51.218-47.527 53.874-28.145 2.838-53.029-14.835-59.109-42.125-.932-4.196-1.246-8.583-1.341-12.877-.072-2.909-.878-4.691-3.467-6.189L89.307 518.53c-2.691-1.566-4.805-1.578-7.52.063-32.472 19.532-73.859.809-80.746-35.679-4.345-23.05 5.044-44.602 25.69-56.741 3.261-1.925 4.737-3.862 4.731-7.846l-.036-170.758c.003-3.42-.887-5.443-4.02-7.261C6.68 228.279-3.071 207.378.91 183.91c3.954-23.312 21.996-40.415 45.476-43.757 12.585-1.788 24.722.504 35.611 7.451 2.53 1.618 4.408 1.567 6.983.084l148.764-85.727c3.001-1.725 4.172-3.703 4.181-7.237.081-31.349 24.872-55.348 56.284-54.712 24.483.489 47.393 20.683 50.866 44.826.317 2.22.815 3.587.815 6.643 0 6.694 2.467 9.532 7.682 12.51l144.161 83.074c3.298 1.916 5.693 1.994 9.127.048 32.595-18.577 72.116-.773 80.051 35.986.746 3.42.675 7.019.934 10.144-.534 20.865-9.598 36.416-27.09 46.896zM526 472.435c0-7.212 5.181-12.45 12.277-12.435 6.832.036 12.654 5.674 12.722 12.349.075 6.425-6.146 12.639-12.621 12.651-6.933 0-12.375-5.52-12.378-12.565zM283 54.396c.027-6.993 5.475-12.389 12.515-12.395 7.052-.006 12.458 5.379 12.485 12.398.018 6.731-5.855 12.684-12.461 12.601-6.717-.065-12.56-5.946-12.539-12.604zM66 472.485c-.027 7.04-5.52 12.571-12.421 12.515-6.521-.063-12.549-6.14-12.579-12.702C40.968 465.742 46.933 460 53.778 460c7.091.006 12.249 5.27 12.222 12.485zM295.653 600c7.035.049 12.38 5.513 12.347 12.624-.045 7.085-5.469 12.421-12.599 12.376-7.071-.037-12.477-5.54-12.4-12.63.08-7.051 5.591-12.424 12.652-12.37zM53.918 205.999c-7.129.064-12.701-5.243-12.912-12.28-.211-6.858 5.427-12.614 12.455-12.717 7.337-.112 12.434 4.882 12.538 12.271.11 7.425-4.865 12.66-12.08 12.726zm484.215.001c-7.209-.052-12.204-5.294-12.132-12.716.071-7.369 5.185-12.38 12.524-12.283 7.037.1 12.638 5.803 12.471 12.695-.166 6.983-5.779 12.355-12.863 12.304zM235.011 396C203.525 396 178 371.43 178 341.122c0-30.186 25.319-54.679 56.629-54.877C244.651 262.628 268.615 246 296.584 246c36.669 0 66.454 28.581 66.959 64.025.038-.001.076-.001.115-.001 24.489 0 44.342 19.247 44.342 42.988 0 22.653-18.073 41.213-41.003 42.868-.155.077-.33.12-.515.12H235.659c-.027 0-.053 0-.08-.003l-.568.003zM1639.24 274.097h-69.85v-47.549h69.85 47.95v139.169c0 51.657-30.35 76.573-75.27 76.573-33.08 0-54.93-14.585-69.5-31.905l29.44-32.817c12.14 13.37 23.98 21.27 38.85 21.27 17.6 0 28.53-10.635 28.53-35.248v-89.493zM851.194 376.413c0 42.198-32.182 65.877-78.025 65.877-32.182 0-64.667-11.232-90.169-34.001l27.627-33.091c19.127 15.787 39.165 25.805 63.453 25.805 19.126 0 30.663-7.59 30.663-20.037v-.607c0-11.84-7.286-17.911-42.807-27.019-42.808-10.929-70.435-22.769-70.435-64.967v-.607c0-38.555 30.967-64.056 74.381-64.056 30.967 0 57.381 9.714 78.936 27.019l-24.288 35.215c-18.823-13.054-37.342-20.947-55.255-20.947s-27.324 8.197-27.324 18.519v.607c0 13.965 9.108 18.519 45.844 27.93 43.111 11.232 67.399 26.715 67.399 63.752v.608zM1049.9 269.737h-64.631v169.715h-46.731V269.737h-64.635v-43.189H1049.9v43.189zM1295.45 333c0 60.47-47.77 110-113.5 110-65.72 0-112.89-48.923-112.89-109.392V333c0-60.47 47.78-110 113.5-110 65.73 0 112.89 48.923 112.89 109.392V333zm-48.97.606V333c0-36.387-26.78-66.71-64.53-66.71-37.74 0-63.92 29.716-63.92 66.104V333c0 36.387 26.79 66.71 64.53 66.71 37.75 0 63.92-29.716 63.92-66.104zM1519 439.452h-54.69l-45.57-68.129h-36.76v68.129h-46.79V226.548h97.22c50.13 0 80.21 26.461 80.21 70.258v.609c0 34.368-18.53 55.963-45.57 66l51.95 76.037zm-53.94-139.351v-.608c0-20.04-13.94-30.364-36.66-30.364h-46.37v61.032h47.28c22.72 0 35.75-12.145 35.75-30.06z" fill="#000"/></svg>
